X:1
T:J. P. Scholfield
T:J. P. S.
T:Coming Home
%%score { ( 1 2 ) | ( 3 4 ) }
L:1/8
M:4/4
K:G
V:1 treble 
V:2 treble 
V:3 bass 
V:4 bass 
V:1
{/x} B3 B A2 G2 | c2 E2 E4 | F3 G A2 F2 | G2 c2 B4 | B3 B A2 G2 | c2 E2 D4 | EFGF E2 A2 | %7
w: Tired of wast\- ing|pre\- cious days,|I'm re\- turn\- ing,|ne'er to roam;|Wear\- y of my|sin\- ful ways,|Sa\- vior, I am com\- ing|
w: Griev\- ing o- ver|all my guilt,|Now I look to|Cal\- va\- ry,|Where Thy pre\- cious|blood was spilt,\-|I am com\- ing home to|
w: Oh the joy that|fills my soul,|Now that grace hath|made me free;|Yield\- ing to Thy|full con\- trol,|I am com\- ing, Lord, to|
w: Oh, the mis\- er\-|y and tears|As I've trav\- eled|Sa\- vtan's way;|Tho' I've wand\- ered|man\- y years,|I am com\- ing home to\-|
 !fermata!A6 z2 |"^Chorus" d3 B e2 d2 | F2 G2 A4 | c3 A F2 D2 | G2 A2 B4 | d3 B c2 B2 | %13
w: home.|Je\- sus, I have|gone a\- stray,|Now I seek Thy|right\- eous way;|I can\- not such|
w: Thee.||||||
w: Thee.||||||
w: day.||||||
 A2 B2 c2 A2 | d3 B G c3 | %15
w: love be\- tray\- So|I am com\- ing|
w: ||
w: ||
w: ||
[Q:1/4=112]"^Moderato""^rit," [Bd]2[Q:1/4=96]"^Andante" [Ac]2[Q:1/4=72]"^Maestoso" [GB]4 |] %16
w: home to\- day.|
w: |
w: |
w: |
V:2
 D3 D D2 D2 | D2 C2 B,4 | C3 D F2 D2 | D2 E2 D4 | D3 D D2 D2 | E2 C2 (B,2 D2) | ^CCCC C2 C2 | %7
 D2 ^C2 !fermata!D2 z2 | D3 G G2 GD | D2 D2 D4 | D3 D D2 D2 | D2 D2 G4 | G3 ^G A2 E2 | %13
 E2 E2 E2 G2 | G3 G D E3 | D2 D2 D4 |] %16
V:3
 G,3 G, G,2 G,2 | G,2 G,2 G,4 | A,3 B, C2 C2 | B,2 G,2 G,4 | G,3 G, F,2 G,2 | G,2 G,2 G,4 | %6
 G,F,E,F, G,2 G,2 | F,2 G,2 C2 z2 | B,3 D C2 B,2 | C2 B,2 C4 | A,3 C C2 C2 | B,2 C2 D4 | %12
 B,3 B, A,2 ^G,2 | A,2 ^G,2 A,2 A,2 | B,3 D B, F,3 | G,2 C2 [G,B,B,]4 |] %16
V:4
 G,,3 G,, A,,2 B,,2 | C,2 C,2 G,,4 | D,3 D, D,2 D,2 | G,2 G,2 G,4 | G,,3 G,, A,,2 B,,2 | %5
 C,2 C,2 (G,,2 B,,2) | A,,A,,A,,A,, A,,2 A,,2 | D,2 E,2 !fermata!F,2 z2 | G,3 G, G,2 G,2 | %9
 A,2 G,2 D,4 | D,3 D, D,2 F,2 | G,2 G,2 G,4 | G,3 E, E,2 B,,2 | C,2 B,,2 A,,2 ^C,2 | %14
 D,3 D, D, D,3 | D,2 D,2 G,,4 |] %16

